src/assets/filled/MessageTick.svg

<svg width="24" height="24" viewBox="0 0 24 24"  xmlns="http://www.w3.org/2000/svg">
<path d="M5 13.5C2.79 13.5 1 15.29 1 17.5C1 18.25 1.21 18.96 1.58 19.56C2.27 20.72 3.54 21.5 5 21.5C6.46 21.5 7.73 20.72 8.42 19.56C8.79 18.96 9 18.25 9 17.5C9 15.29 7.21 13.5 5 13.5ZM6.97 17.17L4.84 19.14C4.7 19.27 4.51 19.34 4.33 19.34C4.14 19.34 3.95 19.27 3.8 19.12L2.81 18.13C2.52 17.84 2.52 17.36 2.81 17.07C3.1 16.78 3.58 16.78 3.87 17.07L4.35 17.55L5.95 16.07C6.25 15.79 6.73 15.81 7.01 16.11C7.29 16.41 7.27 16.89 6.97 17.17Z" />
<path d="M17.25 2.43018H7.75C4.9 2.43018 3 4.33018 3 7.18018V11.6402C3 11.9902 3.36 12.2402 3.7 12.1502C4.12 12.0502 4.55 12.0002 5 12.0002C7.86 12.0002 10.22 14.3202 10.48 17.1302C10.5 17.4102 10.73 17.6302 11 17.6302H11.55L15.78 20.4502C16.4 20.8702 17.25 20.4102 17.25 19.6502V17.6302C18.67 17.6302 19.86 17.1502 20.69 16.3302C21.52 15.4902 22 14.3002 22 12.8802V7.18018C22 4.33018 20.1 2.43018 17.25 2.43018ZM15.83 10.8102H9.17C8.78 10.8102 8.46 10.4902 8.46 10.1002C8.46 9.70018 8.78 9.38018 9.17 9.38018H15.83C16.22 9.38018 16.54 9.70018 16.54 10.1002C16.54 10.4902 16.22 10.8102 15.83 10.8102Z" />
</svg>

<?xml version="1.0" encoding="UTF-8"?>
<svg width="24" height="24" viewBox="0 0 24 24" xmlns="http://www.w3.org/2000/svg">
 <path d="m5 13.5c-2.21 0-4 1.79-4 4 0 0.75 0.21 1.46 0.58 2.06 0.69 1.16 1.96 1.94 3.42 1.94s2.73-0.78 3.42-1.94c0.37-0.6 0.58-1.31 0.58-2.06 0-2.21-1.79-4-4-4zm1.97 3.67-2.13 1.97c-0.14 0.13-0.33 0.2-0.51 0.2-0.19 0-0.38-0.07-0.53-0.22l-0.99-0.99c-0.29-0.29-0.29-0.77 0-1.06s0.77-0.29 1.06 0l0.48 0.48 1.6-1.48c0.3-0.28 0.78-0.26 1.06 0.04s0.26 0.78-0.04 1.06z"/>
 <path d="m17.25 2.4302h-9.5c-2.85 0-4.75 1.9-4.75 4.75v4.46c0 0.35 0.36 0.6 0.7 0.51 0.42-0.1 0.85-0.15 1.3-0.15 2.86 0 5.22 2.32 5.48 5.13 0.02 0.28 0.25 0.5 0.52 0.5h0.55l4.23 2.82c0.62 0.42 1.47-0.04 1.47-0.8v-2.02c1.42 0 2.61-0.48 3.44-1.3 0.83-0.84 1.31-2.03 1.31-3.45v-5.7c0-2.85-1.9-4.75-4.75-4.75zm-1.42 8.38h-6.66c-0.39 0-0.71-0.32-0.71-0.71 0-0.40002 0.32-0.72002 0.71-0.72002h6.66c0.39 0 0.71 0.32 0.71 0.72002 0 0.39-0.32 0.71-0.71 0.71z"/>
</svg>
